X: 20
T:McNally's Hornpipe (#325)
M:4/4
L:1/8
S:Capt. F. O'Neill
R:Hornpipe
K:G
(3def|gfaf gedB|cedc BGGD|GABc defg|agfa g2 (3def|
gbgf gedB|cedc BGGD|GABc dedc|BGAF G2:|
|:AB|cAAG FGAB|cdef gdBd|bgaf gfed|egfa g2 (3def|
gbaf gedB|cedc BGGD|GABc dedc|BGAF G2:||

